(G-CODE GENERATED BY FLATCAM v8.99 - www.flatcam.org - Version Date: 2019/12/15)

(Name: lamp-connector-neutral-F_Cu.gbr_cutout_cnc)
(Type: G-code from Geometry)
(Units: MM)

(Created on Saturday, 28 December 2024 at 23:03)

(TOOL DIAMETER: 0.8 mm)
(Feedrate: 120.0 mm/min)
(Feedrate_Z: 60.0 mm/min)
(Feedrate rapids 1500.0 mm/min)

(Z_Cut: -1.8 mm)
(DepthPerCut: 0.6 mm <=>3 passes)
(Z_Move: 6.0 mm)
(Z Toolchange: 15.0 mm)
(X,Y Toolchange: 0.0000, 0.0000 mm)
(Z Start: None mm)
(Z End: 15.0 mm)
(Steps per circle: 64)
(Preprocessor Geometry: default)

(X range:    0.0490 ...   17.5010  mm)
(Y range:  -29.1010 ...    0.2000  mm)

(Spindle Speed: 30000 RPM)
G21
G90
G94




G01 F120.00
G00 Z6.0000

M03 S30000

(Slot for lamp)

G0 Z6.0000
G0 X10.5500 Y-19.5
G1 F60
G1 Z-1.80
G1 X10.5500 Y-27.500
G1 Z0
G0 Z6.00

(Hole for cable)

G0 X15 Y-2.301
G0 X15.6 Y-2.301
G1 Z-1.80
G2 I-0.6
G1 Z0
G0 Z6

G00 X0.0496 Y-3.9265
G01 F60.00
G01 Z-0.6000
G01 F120.00
G01 X0.0490 Y-3.9510
G01 X0.0490 Y-23.5760
G01 X0.0496 Y-23.6005
G01 X0.0592 Y-23.7967
G01 X0.0611 Y-23.8219
G01 X0.0640 Y-23.8455
G01 X0.0929 Y-24.0397
G01 X0.0994 Y-24.0748
G01 X0.1501 Y-24.2784
G01 X0.1562 Y-24.3005
G01 X0.1644 Y-24.3253
G01 X0.2305 Y-24.5102
G01 X0.2444 Y-24.5448
G01 X0.3333 Y-24.7330
G01 X0.3381 Y-24.7429
G01 X0.3564 Y-24.7763
G01 X0.4574 Y-24.9447
G01 X0.4702 Y-24.9650
G01 X0.4846 Y-24.9855
G01 X0.6016 Y-25.1433
G01 X0.6236 Y-25.1708
G01 X0.6327 Y-25.1812
G01 X0.7646 Y-25.3267
G01 X0.7650 Y-25.3263
G01 X0.7815 Y-25.3445
G01 X1.0315 Y-25.5945
G01 X1.0493 Y-25.6114
G01 X1.1948 Y-25.7433
G01 X1.2052 Y-25.7524
G01 X1.2327 Y-25.7744
G01 X1.3905 Y-25.8914
G01 X1.4110 Y-25.9058
G01 X1.4313 Y-25.9186
G01 X1.5997 Y-26.0196
G01 X1.6331 Y-26.0379
G01 X1.6430 Y-26.0427
G01 X1.8312 Y-26.1316
G01 X1.8658 Y-26.1455
G01 X2.0507 Y-26.2116
G01 X2.0755 Y-26.2198
G01 X2.0977 Y-26.2259
G01 X2.3012 Y-26.2766
G01 X2.3363 Y-26.2831
G01 X2.5305 Y-26.3120
G01 X2.5541 Y-26.3149
G01 X2.5793 Y-26.3168
G01 X2.7755 Y-26.3264
G01 X2.8000 Y-26.3270
G01 X2.8245 Y-26.3264
G01 X3.0207 Y-26.3168
G01 X3.0459 Y-26.3149
G01 X3.0695 Y-26.3120
G01 X3.2637 Y-26.2831
G01 X3.2988 Y-26.2766
G01 X3.5023 Y-26.2259
G01 X3.5245 Y-26.2198
G01 X3.5493 Y-26.2116
G01 X3.7342 Y-26.1455
G01 X3.7688 Y-26.1316
G01 X3.8317 Y-26.1020
G01 X5.8500 Y-26.1020
G01 X5.8500 Y-28.6010
G01 X5.8527 Y-28.6532
G01 X5.8609 Y-28.7048
G01 X5.8744 Y-28.7553
G01 X5.8931 Y-28.8041
G01 X5.9169 Y-28.8508
G01 X5.9454 Y-28.8948
G01 X5.9784 Y-28.9355
G01 X6.0155 Y-28.9726
G01 X6.0562 Y-29.0056
G01 X6.1002 Y-29.0341
G01 X6.1469 Y-29.0579
G01 X6.1957 Y-29.0766
G01 X6.2462 Y-29.0901
G01 X6.2978 Y-29.0983
G01 X6.3500 Y-29.1010
G01 X11.3500 Y-29.1010
G01 X11.4022 Y-29.0983
G01 X11.4538 Y-29.0901
G01 X11.5043 Y-29.0766
G01 X11.5531 Y-29.0579
G01 X11.5998 Y-29.0341
G01 X11.6438 Y-29.0056
G01 X11.6845 Y-28.9726
G01 X11.7216 Y-28.9355
G01 X11.7546 Y-28.8948
G01 X11.7831 Y-28.8508
G01 X11.8069 Y-28.8041
G01 X11.8256 Y-28.7553
G01 X11.8391 Y-28.7048
G01 X11.8473 Y-28.6532
G01 X11.8500 Y-28.6010
G01 X11.8500 Y-18.6010
G01 X11.8473 Y-18.5488
G01 X11.8391 Y-18.4972
G01 X11.8256 Y-18.4467
G01 X11.8069 Y-18.3979
G01 X11.7831 Y-18.3512
G01 X11.7546 Y-18.3072
G01 X11.7216 Y-18.2665
G01 X11.6845 Y-18.2294
G01 X11.6438 Y-18.1964
G01 X11.5998 Y-18.1679
G01 X11.5531 Y-18.1441
G01 X11.5043 Y-18.1254
G01 X11.4538 Y-18.1119
G01 X11.4022 Y-18.1037
G01 X11.3500 Y-18.1010
G01 X6.3500 Y-18.1010
G01 X6.2978 Y-18.1037
G01 X6.2462 Y-18.1119
G01 X6.1957 Y-18.1254
G01 X6.1469 Y-18.1441
G01 X6.1002 Y-18.1679
G01 X6.0562 Y-18.1964
G01 X6.0155 Y-18.2294
G01 X5.9784 Y-18.2665
G01 X5.9454 Y-18.3072
G01 X5.9169 Y-18.3512
G01 X5.8931 Y-18.3979
G01 X5.8744 Y-18.4467
G01 X5.8609 Y-18.4972
G01 X5.8527 Y-18.5488
G01 X5.8500 Y-18.6010
G01 X5.8500 Y-21.1000
G01 X5.0510 Y-21.1000
G01 X5.0510 Y-4.9869
G01 X5.2359 Y-4.8020
G01 X15.0000 Y-4.8020
G01 X15.0245 Y-4.8014
G01 X15.2207 Y-4.7918
G01 X15.2459 Y-4.7899
G01 X15.2695 Y-4.7870
G01 X15.4637 Y-4.7581
G01 X15.5016 Y-4.7510
G01 X16.7000 Y-4.7510
G01 X16.7245 Y-4.7504
G01 X16.7490 Y-4.7492
G01 X16.7743 Y-4.7473
G01 X16.7979 Y-4.7444
G01 X16.8221 Y-4.7408
G01 X16.8572 Y-4.7343
G01 X16.8941 Y-4.7253
G01 X16.9162 Y-4.7191
G01 X16.9410 Y-4.7110
G01 X16.9641 Y-4.7027
G01 X16.9987 Y-4.6889
G01 X17.0094 Y-4.6840
G01 X17.0415 Y-4.6687
G01 X17.0749 Y-4.6503
G01 X17.0959 Y-4.6377
G01 X17.1162 Y-4.6249
G01 X17.1367 Y-4.6105
G01 X17.1564 Y-4.5959
G01 X17.1840 Y-4.5739
G01 X17.2126 Y-4.5483
G01 X17.2303 Y-4.5313
G01 X17.2473 Y-4.5136
G01 X17.2729 Y-4.4850
G01 X17.2949 Y-4.4574
G01 X17.3095 Y-4.4377
G01 X17.3239 Y-4.4172
G01 X17.3367 Y-4.3969
G01 X17.3493 Y-4.3759
G01 X17.3677 Y-4.3425
G01 X17.3830 Y-4.3104
G01 X17.3879 Y-4.2997
G01 X17.4017 Y-4.2651
G01 X17.4100 Y-4.2420
G01 X17.4181 Y-4.2172
G01 X17.4243 Y-4.1951
G01 X17.4333 Y-4.1582
G01 X17.4398 Y-4.1231
G01 X17.4434 Y-4.0989
G01 X17.4463 Y-4.0753
G01 X17.4482 Y-4.0500
G01 X17.4494 Y-4.0255
G01 X17.4500 Y-4.0010
G01 X17.4500 Y-2.8026
G01 X17.4571 Y-2.7647
G01 X17.4860 Y-2.5705
G01 X17.4889 Y-2.5469
G01 X17.4908 Y-2.5217
G01 X17.5004 Y-2.3255
G01 X17.5010 Y-2.3010
G01 X17.5004 Y-2.2765
G01 X17.4908 Y-2.0803
G01 X17.4889 Y-2.0551
G01 X17.4860 Y-2.0315
G01 X17.4571 Y-1.8373
G01 X17.4500 Y-1.7994
G01 X17.4500 Y-0.6010
G01 X17.4494 Y-0.5765
G01 X17.4482 Y-0.5520
G01 X17.4463 Y-0.5267
G01 X17.4434 Y-0.5031
G01 X17.4398 Y-0.4789
G01 X17.4333 Y-0.4438
G01 X17.4302 Y-0.4307
G01 X17.4243 Y-0.4069
G01 X17.4181 Y-0.3848
G01 X17.4100 Y-0.3600
G01 X17.4017 Y-0.3369
G01 X17.3879 Y-0.3023
G01 X17.3677 Y-0.2595
G01 X17.3493 Y-0.2261
G01 X17.3367 Y-0.2051
G01 X17.3239 Y-0.1848
G01 X17.3095 Y-0.1643
G01 X17.2949 Y-0.1446
G01 X17.2729 Y-0.1170
G01 X17.2473 Y-0.0884
G01 X17.2303 Y-0.0707
G01 X17.2126 Y-0.0537
G01 X17.1944 Y-0.0373
G01 X17.1840 Y-0.0281
G01 X17.1564 Y-0.0061
G01 X17.1367 Y0.0085
G01 X17.1162 Y0.0229
G01 X17.0959 Y0.0357
G01 X17.0749 Y0.0483
G01 X17.0415 Y0.0667
G01 X17.0094 Y0.0820
G01 X16.9987 Y0.0869
G01 X16.9641 Y0.1007
G01 X16.9410 Y0.1090
G01 X16.9162 Y0.1171
G01 X16.8941 Y0.1233
G01 X16.8572 Y0.1323
G01 X16.8221 Y0.1388
G01 X16.7979 Y0.1424
G01 X16.7743 Y0.1453
G01 X16.7490 Y0.1472
G01 X16.7245 Y0.1484
G01 X16.7000 Y0.1490
G01 X15.5016 Y0.1490
G01 X15.4637 Y0.1561
G01 X15.2695 Y0.1850
G01 X15.2459 Y0.1879
G01 X15.2207 Y0.1898
G01 X15.0245 Y0.1994
G01 X15.0000 Y0.2000
G01 X4.2000 Y0.2000
G01 X4.1755 Y0.1994
G01 X3.9793 Y0.1898
G01 X3.9541 Y0.1879
G01 X3.9305 Y0.1850
G01 X3.7363 Y0.1561
G01 X3.7012 Y0.1496
G01 X3.4977 Y0.0989
G01 X3.4755 Y0.0928
G01 X3.4507 Y0.0846
G01 X3.2658 Y0.0185
G01 X3.2312 Y0.0046
G01 X3.0430 Y-0.0843
G01 X3.0331 Y-0.0891
G01 X2.9997 Y-0.1074
G01 X2.8313 Y-0.2084
G01 X2.8110 Y-0.2212
G01 X2.7905 Y-0.2356
G01 X2.6327 Y-0.3526
G01 X2.6052 Y-0.3746
G01 X2.4493 Y-0.5156
G01 X2.4497 Y-0.5160
G01 X2.4315 Y-0.5325
G01 X0.7815 Y-2.1825
G01 X0.7646 Y-2.2003
G01 X0.6327 Y-2.3458
G01 X0.6236 Y-2.3562
G01 X0.6016 Y-2.3837
G01 X0.4846 Y-2.5415
G01 X0.4702 Y-2.5620
G01 X0.4574 Y-2.5823
G01 X0.3564 Y-2.7507
G01 X0.3381 Y-2.7841
G01 X0.2493 Y-2.9715
G01 X0.2444 Y-2.9822
G01 X0.2305 Y-3.0168
G01 X0.1644 Y-3.2017
G01 X0.1562 Y-3.2265
G01 X0.1501 Y-3.2487
G01 X0.0994 Y-3.4522
G01 X0.0929 Y-3.4873
G01 X0.0640 Y-3.6815
G01 X0.0611 Y-3.7051
G01 X0.0592 Y-3.7303
G01 X0.0496 Y-3.9265
G01 X0.0490 Y-3.9510
G00 X0.0496 Y-3.9265
G01 F60.00
G01 Z-1.2000
G01 F120.00
G01 X0.0490 Y-3.9510
G01 X0.0490 Y-23.5760
G01 X0.0496 Y-23.6005
G01 X0.0592 Y-23.7967
G01 X0.0611 Y-23.8219
G01 X0.0640 Y-23.8455
G01 X0.0929 Y-24.0397
G01 X0.0994 Y-24.0748
G01 X0.1501 Y-24.2784
G01 X0.1562 Y-24.3005
G01 X0.1644 Y-24.3253
G01 X0.2305 Y-24.5102
G01 X0.2444 Y-24.5448
G01 X0.3333 Y-24.7330
G01 X0.3381 Y-24.7429
G01 X0.3564 Y-24.7763
G01 X0.4574 Y-24.9447
G01 X0.4702 Y-24.9650
G01 X0.4846 Y-24.9855
G01 X0.6016 Y-25.1433
G01 X0.6236 Y-25.1708
G01 X0.6327 Y-25.1812
G01 X0.7646 Y-25.3267
G01 X0.7650 Y-25.3263
G01 X0.7815 Y-25.3445
G01 X1.0315 Y-25.5945
G01 X1.0493 Y-25.6114
G01 X1.1948 Y-25.7433
G01 X1.2052 Y-25.7524
G01 X1.2327 Y-25.7744
G01 X1.3905 Y-25.8914
G01 X1.4110 Y-25.9058
G01 X1.4313 Y-25.9186
G01 X1.5997 Y-26.0196
G01 X1.6331 Y-26.0379
G01 X1.6430 Y-26.0427
G01 X1.8312 Y-26.1316
G01 X1.8658 Y-26.1455
G01 X2.0507 Y-26.2116
G01 X2.0755 Y-26.2198
G01 X2.0977 Y-26.2259
G01 X2.3012 Y-26.2766
G01 X2.3363 Y-26.2831
G01 X2.5305 Y-26.3120
G01 X2.5541 Y-26.3149
G01 X2.5793 Y-26.3168
G01 X2.7755 Y-26.3264
G01 X2.8000 Y-26.3270
G01 X2.8245 Y-26.3264
G01 X3.0207 Y-26.3168
G01 X3.0459 Y-26.3149
G01 X3.0695 Y-26.3120
G01 X3.2637 Y-26.2831
G01 X3.2988 Y-26.2766
G01 X3.5023 Y-26.2259
G01 X3.5245 Y-26.2198
G01 X3.5493 Y-26.2116
G01 X3.7342 Y-26.1455
G01 X3.7688 Y-26.1316
G01 X3.8317 Y-26.1020
G01 X5.8500 Y-26.1020
G01 X5.8500 Y-28.6010
G01 X5.8527 Y-28.6532
G01 X5.8609 Y-28.7048
G01 X5.8744 Y-28.7553
G01 X5.8931 Y-28.8041
G01 X5.9169 Y-28.8508
G01 X5.9454 Y-28.8948
G01 X5.9784 Y-28.9355
G01 X6.0155 Y-28.9726
G01 X6.0562 Y-29.0056
G01 X6.1002 Y-29.0341
G01 X6.1469 Y-29.0579
G01 X6.1957 Y-29.0766
G01 X6.2462 Y-29.0901
G01 X6.2978 Y-29.0983
G01 X6.3500 Y-29.1010
G01 X11.3500 Y-29.1010
G01 X11.4022 Y-29.0983
G01 X11.4538 Y-29.0901
G01 X11.5043 Y-29.0766
G01 X11.5531 Y-29.0579
G01 X11.5998 Y-29.0341
G01 X11.6438 Y-29.0056
G01 X11.6845 Y-28.9726
G01 X11.7216 Y-28.9355
G01 X11.7546 Y-28.8948
G01 X11.7831 Y-28.8508
G01 X11.8069 Y-28.8041
G01 X11.8256 Y-28.7553
G01 X11.8391 Y-28.7048
G01 X11.8473 Y-28.6532
G01 X11.8500 Y-28.6010
G01 X11.8500 Y-18.6010
G01 X11.8473 Y-18.5488
G01 X11.8391 Y-18.4972
G01 X11.8256 Y-18.4467
G01 X11.8069 Y-18.3979
G01 X11.7831 Y-18.3512
G01 X11.7546 Y-18.3072
G01 X11.7216 Y-18.2665
G01 X11.6845 Y-18.2294
G01 X11.6438 Y-18.1964
G01 X11.5998 Y-18.1679
G01 X11.5531 Y-18.1441
G01 X11.5043 Y-18.1254
G01 X11.4538 Y-18.1119
G01 X11.4022 Y-18.1037
G01 X11.3500 Y-18.1010
G01 X6.3500 Y-18.1010
G01 X6.2978 Y-18.1037
G01 X6.2462 Y-18.1119
G01 X6.1957 Y-18.1254
G01 X6.1469 Y-18.1441
G01 X6.1002 Y-18.1679
G01 X6.0562 Y-18.1964
G01 X6.0155 Y-18.2294
G01 X5.9784 Y-18.2665
G01 X5.9454 Y-18.3072
G01 X5.9169 Y-18.3512
G01 X5.8931 Y-18.3979
G01 X5.8744 Y-18.4467
G01 X5.8609 Y-18.4972
G01 X5.8527 Y-18.5488
G01 X5.8500 Y-18.6010
G01 X5.8500 Y-21.1000
G01 X5.0510 Y-21.1000
G01 X5.0510 Y-4.9869
G01 X5.2359 Y-4.8020
G01 X15.0000 Y-4.8020
G01 X15.0245 Y-4.8014
G01 X15.2207 Y-4.7918
G01 X15.2459 Y-4.7899
G01 X15.2695 Y-4.7870
G01 X15.4637 Y-4.7581
G01 X15.5016 Y-4.7510
G01 X16.7000 Y-4.7510
G01 X16.7245 Y-4.7504
G01 X16.7490 Y-4.7492
G01 X16.7743 Y-4.7473
G01 X16.7979 Y-4.7444
G01 X16.8221 Y-4.7408
G01 X16.8572 Y-4.7343
G01 X16.8941 Y-4.7253
G01 X16.9162 Y-4.7191
G01 X16.9410 Y-4.7110
G01 X16.9641 Y-4.7027
G01 X16.9987 Y-4.6889
G01 X17.0094 Y-4.6840
G01 X17.0415 Y-4.6687
G01 X17.0749 Y-4.6503
G01 X17.0959 Y-4.6377
G01 X17.1162 Y-4.6249
G01 X17.1367 Y-4.6105
G01 X17.1564 Y-4.5959
G01 X17.1840 Y-4.5739
G01 X17.2126 Y-4.5483
G01 X17.2303 Y-4.5313
G01 X17.2473 Y-4.5136
G01 X17.2729 Y-4.4850
G01 X17.2949 Y-4.4574
G01 X17.3095 Y-4.4377
G01 X17.3239 Y-4.4172
G01 X17.3367 Y-4.3969
G01 X17.3493 Y-4.3759
G01 X17.3677 Y-4.3425
G01 X17.3830 Y-4.3104
G01 X17.3879 Y-4.2997
G01 X17.4017 Y-4.2651
G01 X17.4100 Y-4.2420
G01 X17.4181 Y-4.2172
G01 X17.4243 Y-4.1951
G01 X17.4333 Y-4.1582
G01 X17.4398 Y-4.1231
G01 X17.4434 Y-4.0989
G01 X17.4463 Y-4.0753
G01 X17.4482 Y-4.0500
G01 X17.4494 Y-4.0255
G01 X17.4500 Y-4.0010
G01 X17.4500 Y-2.8026
G01 X17.4571 Y-2.7647
G01 X17.4860 Y-2.5705
G01 X17.4889 Y-2.5469
G01 X17.4908 Y-2.5217
G01 X17.5004 Y-2.3255
G01 X17.5010 Y-2.3010
G01 X17.5004 Y-2.2765
G01 X17.4908 Y-2.0803
G01 X17.4889 Y-2.0551
G01 X17.4860 Y-2.0315
G01 X17.4571 Y-1.8373
G01 X17.4500 Y-1.7994
G01 X17.4500 Y-0.6010
G01 X17.4494 Y-0.5765
G01 X17.4482 Y-0.5520
G01 X17.4463 Y-0.5267
G01 X17.4434 Y-0.5031
G01 X17.4398 Y-0.4789
G01 X17.4333 Y-0.4438
G01 X17.4302 Y-0.4307
G01 X17.4243 Y-0.4069
G01 X17.4181 Y-0.3848
G01 X17.4100 Y-0.3600
G01 X17.4017 Y-0.3369
G01 X17.3879 Y-0.3023
G01 X17.3677 Y-0.2595
G01 X17.3493 Y-0.2261
G01 X17.3367 Y-0.2051
G01 X17.3239 Y-0.1848
G01 X17.3095 Y-0.1643
G01 X17.2949 Y-0.1446
G01 X17.2729 Y-0.1170
G01 X17.2473 Y-0.0884
G01 X17.2303 Y-0.0707
G01 X17.2126 Y-0.0537
G01 X17.1944 Y-0.0373
G01 X17.1840 Y-0.0281
G01 X17.1564 Y-0.0061
G01 X17.1367 Y0.0085
G01 X17.1162 Y0.0229
G01 X17.0959 Y0.0357
G01 X17.0749 Y0.0483
G01 X17.0415 Y0.0667
G01 X17.0094 Y0.0820
G01 X16.9987 Y0.0869
G01 X16.9641 Y0.1007
G01 X16.9410 Y0.1090
G01 X16.9162 Y0.1171
G01 X16.8941 Y0.1233
G01 X16.8572 Y0.1323
G01 X16.8221 Y0.1388
G01 X16.7979 Y0.1424
G01 X16.7743 Y0.1453
G01 X16.7490 Y0.1472
G01 X16.7245 Y0.1484
G01 X16.7000 Y0.1490
G01 X15.5016 Y0.1490
G01 X15.4637 Y0.1561
G01 X15.2695 Y0.1850
G01 X15.2459 Y0.1879
G01 X15.2207 Y0.1898
G01 X15.0245 Y0.1994
G01 X15.0000 Y0.2000
G01 X4.2000 Y0.2000
G01 X4.1755 Y0.1994
G01 X3.9793 Y0.1898
G01 X3.9541 Y0.1879
G01 X3.9305 Y0.1850
G01 X3.7363 Y0.1561
G01 X3.7012 Y0.1496
G01 X3.4977 Y0.0989
G01 X3.4755 Y0.0928
G01 X3.4507 Y0.0846
G01 X3.2658 Y0.0185
G01 X3.2312 Y0.0046
G01 X3.0430 Y-0.0843
G01 X3.0331 Y-0.0891
G01 X2.9997 Y-0.1074
G01 X2.8313 Y-0.2084
G01 X2.8110 Y-0.2212
G01 X2.7905 Y-0.2356
G01 X2.6327 Y-0.3526
G01 X2.6052 Y-0.3746
G01 X2.4493 Y-0.5156
G01 X2.4497 Y-0.5160
G01 X2.4315 Y-0.5325
G01 X0.7815 Y-2.1825
G01 X0.7646 Y-2.2003
G01 X0.6327 Y-2.3458
G01 X0.6236 Y-2.3562
G01 X0.6016 Y-2.3837
G01 X0.4846 Y-2.5415
G01 X0.4702 Y-2.5620
G01 X0.4574 Y-2.5823
G01 X0.3564 Y-2.7507
G01 X0.3381 Y-2.7841
G01 X0.2493 Y-2.9715
G01 X0.2444 Y-2.9822
G01 X0.2305 Y-3.0168
G01 X0.1644 Y-3.2017
G01 X0.1562 Y-3.2265
G01 X0.1501 Y-3.2487
G01 X0.0994 Y-3.4522
G01 X0.0929 Y-3.4873
G01 X0.0640 Y-3.6815
G01 X0.0611 Y-3.7051
G01 X0.0592 Y-3.7303
G01 X0.0496 Y-3.9265
G01 X0.0490 Y-3.9510
G00 X0.0496 Y-3.9265
G01 F60.00
G01 Z-1.8000
G01 F120.00
G01 X0.0490 Y-3.9510
G01 X0.0490 Y-23.5760
G01 X0.0496 Y-23.6005
G01 X0.0592 Y-23.7967
G01 X0.0611 Y-23.8219
G01 X0.0640 Y-23.8455
G01 X0.0929 Y-24.0397
G01 X0.0994 Y-24.0748
G01 X0.1501 Y-24.2784
G01 X0.1562 Y-24.3005
G01 X0.1644 Y-24.3253
G01 X0.2305 Y-24.5102
G01 X0.2444 Y-24.5448
G01 X0.3333 Y-24.7330
G01 X0.3381 Y-24.7429
G01 X0.3564 Y-24.7763
G01 X0.4574 Y-24.9447
G01 X0.4702 Y-24.9650
G01 X0.4846 Y-24.9855
G01 X0.6016 Y-25.1433
G01 X0.6236 Y-25.1708
G01 X0.6327 Y-25.1812
G01 X0.7646 Y-25.3267
G01 X0.7650 Y-25.3263
G01 X0.7815 Y-25.3445
G01 X1.0315 Y-25.5945
G01 X1.0493 Y-25.6114
G01 X1.1948 Y-25.7433
G01 X1.2052 Y-25.7524
G01 X1.2327 Y-25.7744
G01 X1.3905 Y-25.8914
G01 X1.4110 Y-25.9058
G01 X1.4313 Y-25.9186
G01 X1.5997 Y-26.0196
G01 X1.6331 Y-26.0379
G01 X1.6430 Y-26.0427
G01 X1.8312 Y-26.1316
G01 X1.8658 Y-26.1455
G01 X2.0507 Y-26.2116
G01 X2.0755 Y-26.2198
G01 X2.0977 Y-26.2259
G01 X2.3012 Y-26.2766
G01 X2.3363 Y-26.2831
G01 X2.5305 Y-26.3120
G01 X2.5541 Y-26.3149
G01 X2.5793 Y-26.3168
G01 X2.7755 Y-26.3264
G01 X2.8000 Y-26.3270
G01 X2.8245 Y-26.3264
G01 X3.0207 Y-26.3168
G01 X3.0459 Y-26.3149
G01 X3.0695 Y-26.3120
G01 X3.2637 Y-26.2831
G01 X3.2988 Y-26.2766
G01 X3.5023 Y-26.2259
G01 X3.5245 Y-26.2198
G01 X3.5493 Y-26.2116
G01 X3.7342 Y-26.1455
G01 X3.7688 Y-26.1316
G01 X3.8317 Y-26.1020
G01 X5.8500 Y-26.1020
G01 X5.8500 Y-28.6010
G01 X5.8527 Y-28.6532
G01 X5.8609 Y-28.7048
G01 X5.8744 Y-28.7553
G01 X5.8931 Y-28.8041
G01 X5.9169 Y-28.8508
G01 X5.9454 Y-28.8948
G01 X5.9784 Y-28.9355
G01 X6.0155 Y-28.9726
G01 X6.0562 Y-29.0056
G01 X6.1002 Y-29.0341
G01 X6.1469 Y-29.0579
G01 X6.1957 Y-29.0766
G01 X6.2462 Y-29.0901
G01 X6.2978 Y-29.0983
G01 X6.3500 Y-29.1010
G01 X11.3500 Y-29.1010
G01 X11.4022 Y-29.0983
G01 X11.4538 Y-29.0901
G01 X11.5043 Y-29.0766
G01 X11.5531 Y-29.0579
G01 X11.5998 Y-29.0341
G01 X11.6438 Y-29.0056
G01 X11.6845 Y-28.9726
G01 X11.7216 Y-28.9355
G01 X11.7546 Y-28.8948
G01 X11.7831 Y-28.8508
G01 X11.8069 Y-28.8041
G01 X11.8256 Y-28.7553
G01 X11.8391 Y-28.7048
G01 X11.8473 Y-28.6532
G01 X11.8500 Y-28.6010
G01 X11.8500 Y-18.6010
G01 X11.8473 Y-18.5488
G01 X11.8391 Y-18.4972
G01 X11.8256 Y-18.4467
G01 X11.8069 Y-18.3979
G01 X11.7831 Y-18.3512
G01 X11.7546 Y-18.3072
G01 X11.7216 Y-18.2665
G01 X11.6845 Y-18.2294
G01 X11.6438 Y-18.1964
G01 X11.5998 Y-18.1679
G01 X11.5531 Y-18.1441
G01 X11.5043 Y-18.1254
G01 X11.4538 Y-18.1119
G01 X11.4022 Y-18.1037
G01 X11.3500 Y-18.1010
G01 X6.3500 Y-18.1010
G01 X6.2978 Y-18.1037
G01 X6.2462 Y-18.1119
G01 X6.1957 Y-18.1254
G01 X6.1469 Y-18.1441
G01 X6.1002 Y-18.1679
G01 X6.0562 Y-18.1964
G01 X6.0155 Y-18.2294
G01 X5.9784 Y-18.2665
G01 X5.9454 Y-18.3072
G01 X5.9169 Y-18.3512
G01 X5.8931 Y-18.3979
G01 X5.8744 Y-18.4467
G01 X5.8609 Y-18.4972
G01 X5.8527 Y-18.5488
G01 X5.8500 Y-18.6010
G01 X5.8500 Y-21.1000
G01 X5.0510 Y-21.1000
G01 X5.0510 Y-4.9869
G01 X5.2359 Y-4.8020
G01 X15.0000 Y-4.8020
G01 X15.0245 Y-4.8014
G01 X15.2207 Y-4.7918
G01 X15.2459 Y-4.7899
G01 X15.2695 Y-4.7870
G01 X15.4637 Y-4.7581
G01 X15.5016 Y-4.7510
G01 X16.7000 Y-4.7510
G01 X16.7245 Y-4.7504
G01 X16.7490 Y-4.7492
G01 X16.7743 Y-4.7473
G01 X16.7979 Y-4.7444
G01 X16.8221 Y-4.7408
G01 X16.8572 Y-4.7343
G01 X16.8941 Y-4.7253
G01 X16.9162 Y-4.7191
G01 X16.9410 Y-4.7110
G01 X16.9641 Y-4.7027
G01 X16.9987 Y-4.6889
G01 X17.0094 Y-4.6840
G01 X17.0415 Y-4.6687
G01 X17.0749 Y-4.6503
G01 X17.0959 Y-4.6377
G01 X17.1162 Y-4.6249
G01 X17.1367 Y-4.6105
G01 X17.1564 Y-4.5959
G01 X17.1840 Y-4.5739
G01 X17.2126 Y-4.5483
G01 X17.2303 Y-4.5313
G01 X17.2473 Y-4.5136
G01 X17.2729 Y-4.4850
G01 X17.2949 Y-4.4574
G01 X17.3095 Y-4.4377
G01 X17.3239 Y-4.4172
G01 X17.3367 Y-4.3969
G01 X17.3493 Y-4.3759
G01 X17.3677 Y-4.3425
G01 X17.3830 Y-4.3104
G01 X17.3879 Y-4.2997
G01 X17.4017 Y-4.2651
G01 X17.4100 Y-4.2420
G01 X17.4181 Y-4.2172
G01 X17.4243 Y-4.1951
G01 X17.4333 Y-4.1582
G01 X17.4398 Y-4.1231
G01 X17.4434 Y-4.0989
G01 X17.4463 Y-4.0753
G01 X17.4482 Y-4.0500
G01 X17.4494 Y-4.0255
G01 X17.4500 Y-4.0010
G01 X17.4500 Y-2.8026
G01 X17.4571 Y-2.7647
G01 X17.4860 Y-2.5705
G01 X17.4889 Y-2.5469
G01 X17.4908 Y-2.5217
G01 X17.5004 Y-2.3255
G01 X17.5010 Y-2.3010
G01 X17.5004 Y-2.2765
G01 X17.4908 Y-2.0803
G01 X17.4889 Y-2.0551
G01 X17.4860 Y-2.0315
G01 X17.4571 Y-1.8373
G01 X17.4500 Y-1.7994
G01 X17.4500 Y-0.6010
G01 X17.4494 Y-0.5765
G01 X17.4482 Y-0.5520
G01 X17.4463 Y-0.5267
G01 X17.4434 Y-0.5031
G01 X17.4398 Y-0.4789
G01 X17.4333 Y-0.4438
G01 X17.4302 Y-0.4307
G01 X17.4243 Y-0.4069
G01 X17.4181 Y-0.3848
G01 X17.4100 Y-0.3600
G01 X17.4017 Y-0.3369
G01 X17.3879 Y-0.3023
G01 X17.3677 Y-0.2595
G01 X17.3493 Y-0.2261
G01 X17.3367 Y-0.2051
G01 X17.3239 Y-0.1848
G01 X17.3095 Y-0.1643
G01 X17.2949 Y-0.1446
G01 X17.2729 Y-0.1170
G01 X17.2473 Y-0.0884
G01 X17.2303 Y-0.0707
G01 X17.2126 Y-0.0537
G01 X17.1944 Y-0.0373
G01 X17.1840 Y-0.0281
G01 X17.1564 Y-0.0061
G01 X17.1367 Y0.0085
G01 X17.1162 Y0.0229
G01 X17.0959 Y0.0357
G01 X17.0749 Y0.0483
G01 X17.0415 Y0.0667
G01 X17.0094 Y0.0820
G01 X16.9987 Y0.0869
G01 X16.9641 Y0.1007
G01 X16.9410 Y0.1090
G01 X16.9162 Y0.1171
G01 X16.8941 Y0.1233
G01 X16.8572 Y0.1323
G01 X16.8221 Y0.1388
G01 X16.7979 Y0.1424
G01 X16.7743 Y0.1453
G01 X16.7490 Y0.1472
G01 X16.7245 Y0.1484
G01 X16.7000 Y0.1490
G01 X15.5016 Y0.1490
G01 X15.4637 Y0.1561
G01 X15.2695 Y0.1850
G01 X15.2459 Y0.1879
G01 X15.2207 Y0.1898
G01 X15.0245 Y0.1994
G01 X15.0000 Y0.2000
G01 X4.2000 Y0.2000
G01 X4.1755 Y0.1994
G01 X3.9793 Y0.1898
G01 X3.9541 Y0.1879
G01 X3.9305 Y0.1850
G01 X3.7363 Y0.1561
G01 X3.7012 Y0.1496
G01 X3.4977 Y0.0989
G01 X3.4755 Y0.0928
G01 X3.4507 Y0.0846
G01 X3.2658 Y0.0185
G01 X3.2312 Y0.0046
G01 X3.0430 Y-0.0843
G01 X3.0331 Y-0.0891
G01 X2.9997 Y-0.1074
G01 X2.8313 Y-0.2084
G01 X2.8110 Y-0.2212
G01 X2.7905 Y-0.2356
G01 X2.6327 Y-0.3526
G01 X2.6052 Y-0.3746
G01 X2.4493 Y-0.5156
G01 X2.4497 Y-0.5160
G01 X2.4315 Y-0.5325
G01 X0.7815 Y-2.1825
G01 X0.7646 Y-2.2003
G01 X0.6327 Y-2.3458
G01 X0.6236 Y-2.3562
G01 X0.6016 Y-2.3837
G01 X0.4846 Y-2.5415
G01 X0.4702 Y-2.5620
G01 X0.4574 Y-2.5823
G01 X0.3564 Y-2.7507
G01 X0.3381 Y-2.7841
G01 X0.2493 Y-2.9715
G01 X0.2444 Y-2.9822
G01 X0.2305 Y-3.0168
G01 X0.1644 Y-3.2017
G01 X0.1562 Y-3.2265
G01 X0.1501 Y-3.2487
G01 X0.0994 Y-3.4522
G01 X0.0929 Y-3.4873
G01 X0.0640 Y-3.6815
G01 X0.0611 Y-3.7051
G01 X0.0592 Y-3.7303
G01 X0.0496 Y-3.9265
G01 X0.0490 Y-3.9510
G00 Z6.0000
M05
G00 Z6.0000
G00 Z15.00
G00 X0.0 Y0.0

