(G-CODE GENERATED BY FLATCAM v8.99 - www.flatcam.org - Version Date: 2019/12/15)

(Name: lamp-connector-out-F_Cu.gbr_cutout_cnc)
(Type: G-code from Geometry)
(Units: MM)

(Created on Saturday, 28 December 2024 at 20:09)

(TOOL DIAMETER: 0.8 mm)
(Feedrate: 120.0 mm/min)
(Feedrate_Z: 60.0 mm/min)
(Feedrate rapids 1500.0 mm/min)

(Z_Cut: -1.8 mm)
(DepthPerCut: 0.6 mm <=>3 passes)
(Z_Move: 6.0 mm)
(Z Toolchange: 15.0 mm)
(X,Y Toolchange: 0.0000, 0.0000 mm)
(Z Start: None mm)
(Z End: 15.0 mm)
(Steps per circle: 64)
(Preprocessor Geometry: default)

(X range:    0.1875 ...   41.4635  mm)
(Y range:  -29.0010 ...    0.0750  mm)

(Spindle Speed: 30000 RPM)
G21
G90
G94




G01 F120.00
G00 Z6.0000

M03 S30000

(Slot for lamp)

G0 Z6.0000
G0 X2.300 Y-27.500
G1 F60
G1 Z-1.80
G1 X2.300 Y-19.500
G1 Z0
G0 Z6.00

(Hole for cable)

G0 X38.9620 Y-2.4260
G0 X39.6620 Y-2.4260
G1 Z-1.80
G2 X39.6620 Y-2.4260 I-0.7 J0
G1 Z0
G0 Z6

G0 X38.7620 Y-2.4260
G0 X39.4620 Y-2.4260
G1 Z-1.80
G2 X39.4620 Y-2.4260 I-0.7 J0
G1 Z0
G0 Z6

G0 X38.5620 Y-2.4260
G0 X39.2620 Y-2.4260
G1 Z-1.80
G2 X39.2620 Y-2.4260 I-0.7 J0
G1 Z0
G0 Z6

G00 X0.1875 Y-28.5010
G01 F60.00
G01 Z-0.6000
G01 F120.00
G01 X0.1902 Y-28.5532
G01 X0.1984 Y-28.6048
G01 X0.2119 Y-28.6553
G01 X0.2306 Y-28.7041
G01 X0.2544 Y-28.7508
G01 X0.2829 Y-28.7948
G01 X0.3159 Y-28.8355
G01 X0.3530 Y-28.8726
G01 X0.3937 Y-28.9056
G01 X0.4377 Y-28.9341
G01 X0.4844 Y-28.9579
G01 X0.5332 Y-28.9766
G01 X0.5837 Y-28.9901
G01 X0.6353 Y-28.9983
G01 X0.6875 Y-29.0010
G01 X5.6875 Y-29.0010
G01 X5.7397 Y-28.9983
G01 X5.7913 Y-28.9901
G01 X5.8418 Y-28.9766
G01 X5.8906 Y-28.9579
G01 X5.9373 Y-28.9341
G01 X5.9813 Y-28.9056
G01 X6.0220 Y-28.8726
G01 X6.0591 Y-28.8355
G01 X6.0921 Y-28.7948
G01 X6.1206 Y-28.7508
G01 X6.1444 Y-28.7041
G01 X6.1631 Y-28.6553
G01 X6.1766 Y-28.6048
G01 X6.1848 Y-28.5532
G01 X6.1875 Y-28.5010
G01 X6.1875 Y-25.5364
G01 X6.3048 Y-25.4494
G01 X6.3323 Y-25.4274
G01 X6.4882 Y-25.2864
G01 X6.5060 Y-25.2695
G01 X6.5229 Y-25.2517
G01 X6.6548 Y-25.1062
G01 X6.6639 Y-25.0958
G01 X6.6859 Y-25.0683
G01 X6.8029 Y-24.9105
G01 X6.8173 Y-24.8900
G01 X6.8301 Y-24.8697
G01 X6.9311 Y-24.7013
G01 X6.9494 Y-24.6679
G01 X6.9542 Y-24.6580
G01 X7.0431 Y-24.4698
G01 X7.0570 Y-24.4352
G01 X7.1231 Y-24.2503
G01 X7.1313 Y-24.2255
G01 X7.1374 Y-24.2034
G01 X7.1881 Y-23.9998
G01 X7.1946 Y-23.9647
G01 X7.2235 Y-23.7705
G01 X7.2264 Y-23.7469
G01 X7.2283 Y-23.7217
G01 X7.2379 Y-23.5255
G01 X7.2385 Y-23.5010
G01 X7.2385 Y-20.7619
G01 X23.0734 Y-4.9270
G01 X38.9625 Y-4.9270
G01 X38.9870 Y-4.9264
G01 X39.1832 Y-4.9168
G01 X39.2084 Y-4.9149
G01 X39.2320 Y-4.9120
G01 X39.4262 Y-4.8831
G01 X39.4641 Y-4.8760
G01 X40.6625 Y-4.8760
G01 X40.6870 Y-4.8754
G01 X40.7115 Y-4.8742
G01 X40.7368 Y-4.8723
G01 X40.7604 Y-4.8694
G01 X40.7846 Y-4.8658
G01 X40.8197 Y-4.8593
G01 X40.8566 Y-4.8503
G01 X40.8787 Y-4.8441
G01 X40.9035 Y-4.8360
G01 X40.9266 Y-4.8277
G01 X40.9612 Y-4.8139
G01 X41.0040 Y-4.7937
G01 X41.0374 Y-4.7753
G01 X41.0584 Y-4.7627
G01 X41.0787 Y-4.7499
G01 X41.0992 Y-4.7355
G01 X41.1189 Y-4.7209
G01 X41.1465 Y-4.6989
G01 X41.1569 Y-4.6897
G01 X41.1751 Y-4.6733
G01 X41.1928 Y-4.6563
G01 X41.2098 Y-4.6386
G01 X41.2354 Y-4.6100
G01 X41.2574 Y-4.5824
G01 X41.2720 Y-4.5627
G01 X41.2864 Y-4.5422
G01 X41.2992 Y-4.5219
G01 X41.3118 Y-4.5009
G01 X41.3302 Y-4.4675
G01 X41.3504 Y-4.4247
G01 X41.3642 Y-4.3901
G01 X41.3725 Y-4.3670
G01 X41.3806 Y-4.3422
G01 X41.3868 Y-4.3201
G01 X41.3958 Y-4.2832
G01 X41.4023 Y-4.2481
G01 X41.4059 Y-4.2239
G01 X41.4088 Y-4.2003
G01 X41.4107 Y-4.1750
G01 X41.4119 Y-4.1505
G01 X41.4125 Y-4.1260
G01 X41.4125 Y-2.9276
G01 X41.4196 Y-2.8897
G01 X41.4485 Y-2.6955
G01 X41.4514 Y-2.6719
G01 X41.4533 Y-2.6467
G01 X41.4629 Y-2.4505
G01 X41.4635 Y-2.4260
G01 X41.4629 Y-2.4015
G01 X41.4533 Y-2.2053
G01 X41.4514 Y-2.1801
G01 X41.4485 Y-2.1565
G01 X41.4196 Y-1.9623
G01 X41.4125 Y-1.9244
G01 X41.4125 Y-0.7260
G01 X41.4119 Y-0.7015
G01 X41.4107 Y-0.6770
G01 X41.4088 Y-0.6517
G01 X41.4059 Y-0.6281
G01 X41.4023 Y-0.6039
G01 X41.3958 Y-0.5688
G01 X41.3868 Y-0.5319
G01 X41.3806 Y-0.5098
G01 X41.3725 Y-0.4850
G01 X41.3642 Y-0.4619
G01 X41.3504 Y-0.4273
G01 X41.3455 Y-0.4166
G01 X41.3302 Y-0.3845
G01 X41.3118 Y-0.3511
G01 X41.2992 Y-0.3301
G01 X41.2864 Y-0.3098
G01 X41.2720 Y-0.2893
G01 X41.2574 Y-0.2696
G01 X41.2354 Y-0.2420
G01 X41.2098 Y-0.2134
G01 X41.1928 Y-0.1957
G01 X41.1751 Y-0.1787
G01 X41.1465 Y-0.1531
G01 X41.1189 Y-0.1311
G01 X41.0992 Y-0.1165
G01 X41.0787 Y-0.1021
G01 X41.0584 Y-0.0893
G01 X41.0374 Y-0.0767
G01 X41.0040 Y-0.0583
G01 X40.9612 Y-0.0381
G01 X40.9266 Y-0.0243
G01 X40.9035 Y-0.0160
G01 X40.8787 Y-0.0079
G01 X40.8566 Y-0.0017
G01 X40.8197 Y0.0073
G01 X40.7846 Y0.0138
G01 X40.7604 Y0.0174
G01 X40.7368 Y0.0203
G01 X40.7115 Y0.0222
G01 X40.6870 Y0.0234
G01 X40.6625 Y0.0240
G01 X39.4641 Y0.0240
G01 X39.4262 Y0.0311
G01 X39.2320 Y0.0600
G01 X39.2084 Y0.0629
G01 X39.1832 Y0.0648
G01 X38.9870 Y0.0744
G01 X38.9625 Y0.0750
G01 X22.0375 Y0.0750
G01 X22.0130 Y0.0744
G01 X21.8168 Y0.0648
G01 X21.7916 Y0.0629
G01 X21.7680 Y0.0600
G01 X21.5738 Y0.0311
G01 X21.5387 Y0.0246
G01 X21.3352 Y-0.0261
G01 X21.3130 Y-0.0322
G01 X21.2882 Y-0.0404
G01 X21.1033 Y-0.1065
G01 X21.0687 Y-0.1204
G01 X21.0580 Y-0.1253
G01 X20.8706 Y-0.2141
G01 X20.8372 Y-0.2324
G01 X20.6688 Y-0.3334
G01 X20.6485 Y-0.3462
G01 X20.6280 Y-0.3606
G01 X20.4702 Y-0.4776
G01 X20.4427 Y-0.4996
G01 X20.2868 Y-0.6406
G01 X20.2872 Y-0.6410
G01 X20.2690 Y-0.6575
G01 X2.9690 Y-17.9575
G01 X2.9521 Y-17.9753
G01 X2.9288 Y-18.0010
G01 X0.6875 Y-18.0010
G01 X0.6353 Y-18.0037
G01 X0.5837 Y-18.0119
G01 X0.5332 Y-18.0254
G01 X0.4844 Y-18.0441
G01 X0.4377 Y-18.0679
G01 X0.3937 Y-18.0964
G01 X0.3530 Y-18.1294
G01 X0.3159 Y-18.1665
G01 X0.2829 Y-18.2072
G01 X0.2544 Y-18.2512
G01 X0.2306 Y-18.2979
G01 X0.2119 Y-18.3467
G01 X0.1984 Y-18.3972
G01 X0.1902 Y-18.4488
G01 X0.1875 Y-18.5010
G01 X0.1875 Y-28.5010
G01 X0.1902 Y-28.5532
G01 X0.1984 Y-28.6048
G01 X0.2119 Y-28.6553
G01 X0.2306 Y-28.7041
G01 X0.2544 Y-28.7508
G01 X0.2829 Y-28.7948
G01 X0.3159 Y-28.8355
G01 X0.3530 Y-28.8726
G01 X0.3937 Y-28.9056
G01 X0.4377 Y-28.9341
G01 X0.4844 Y-28.9579
G01 X0.5332 Y-28.9766
G01 X0.5837 Y-28.9901
G01 X0.6353 Y-28.9983
G01 X0.6875 Y-29.0010
G00 X0.1875 Y-28.5010
G01 F60.00
G01 Z-1.2000
G01 F120.00
G01 X0.1902 Y-28.5532
G01 X0.1984 Y-28.6048
G01 X0.2119 Y-28.6553
G01 X0.2306 Y-28.7041
G01 X0.2544 Y-28.7508
G01 X0.2829 Y-28.7948
G01 X0.3159 Y-28.8355
G01 X0.3530 Y-28.8726
G01 X0.3937 Y-28.9056
G01 X0.4377 Y-28.9341
G01 X0.4844 Y-28.9579
G01 X0.5332 Y-28.9766
G01 X0.5837 Y-28.9901
G01 X0.6353 Y-28.9983
G01 X0.6875 Y-29.0010
G01 X5.6875 Y-29.0010
G01 X5.7397 Y-28.9983
G01 X5.7913 Y-28.9901
G01 X5.8418 Y-28.9766
G01 X5.8906 Y-28.9579
G01 X5.9373 Y-28.9341
G01 X5.9813 Y-28.9056
G01 X6.0220 Y-28.8726
G01 X6.0591 Y-28.8355
G01 X6.0921 Y-28.7948
G01 X6.1206 Y-28.7508
G01 X6.1444 Y-28.7041
G01 X6.1631 Y-28.6553
G01 X6.1766 Y-28.6048
G01 X6.1848 Y-28.5532
G01 X6.1875 Y-28.5010
G01 X6.1875 Y-25.5364
G01 X6.3048 Y-25.4494
G01 X6.3323 Y-25.4274
G01 X6.4882 Y-25.2864
G01 X6.5060 Y-25.2695
G01 X6.5229 Y-25.2517
G01 X6.6548 Y-25.1062
G01 X6.6639 Y-25.0958
G01 X6.6859 Y-25.0683
G01 X6.8029 Y-24.9105
G01 X6.8173 Y-24.8900
G01 X6.8301 Y-24.8697
G01 X6.9311 Y-24.7013
G01 X6.9494 Y-24.6679
G01 X6.9542 Y-24.6580
G01 X7.0431 Y-24.4698
G01 X7.0570 Y-24.4352
G01 X7.1231 Y-24.2503
G01 X7.1313 Y-24.2255
G01 X7.1374 Y-24.2034
G01 X7.1881 Y-23.9998
G01 X7.1946 Y-23.9647
G01 X7.2235 Y-23.7705
G01 X7.2264 Y-23.7469
G01 X7.2283 Y-23.7217
G01 X7.2379 Y-23.5255
G01 X7.2385 Y-23.5010
G01 X7.2385 Y-20.7619
G01 X23.0734 Y-4.9270
G01 X38.9625 Y-4.9270
G01 X38.9870 Y-4.9264
G01 X39.1832 Y-4.9168
G01 X39.2084 Y-4.9149
G01 X39.2320 Y-4.9120
G01 X39.4262 Y-4.8831
G01 X39.4641 Y-4.8760
G01 X40.6625 Y-4.8760
G01 X40.6870 Y-4.8754
G01 X40.7115 Y-4.8742
G01 X40.7368 Y-4.8723
G01 X40.7604 Y-4.8694
G01 X40.7846 Y-4.8658
G01 X40.8197 Y-4.8593
G01 X40.8566 Y-4.8503
G01 X40.8787 Y-4.8441
G01 X40.9035 Y-4.8360
G01 X40.9266 Y-4.8277
G01 X40.9612 Y-4.8139
G01 X41.0040 Y-4.7937
G01 X41.0374 Y-4.7753
G01 X41.0584 Y-4.7627
G01 X41.0787 Y-4.7499
G01 X41.0992 Y-4.7355
G01 X41.1189 Y-4.7209
G01 X41.1465 Y-4.6989
G01 X41.1569 Y-4.6897
G01 X41.1751 Y-4.6733
G01 X41.1928 Y-4.6563
G01 X41.2098 Y-4.6386
G01 X41.2354 Y-4.6100
G01 X41.2574 Y-4.5824
G01 X41.2720 Y-4.5627
G01 X41.2864 Y-4.5422
G01 X41.2992 Y-4.5219
G01 X41.3118 Y-4.5009
G01 X41.3302 Y-4.4675
G01 X41.3504 Y-4.4247
G01 X41.3642 Y-4.3901
G01 X41.3725 Y-4.3670
G01 X41.3806 Y-4.3422
G01 X41.3868 Y-4.3201
G01 X41.3958 Y-4.2832
G01 X41.4023 Y-4.2481
G01 X41.4059 Y-4.2239
G01 X41.4088 Y-4.2003
G01 X41.4107 Y-4.1750
G01 X41.4119 Y-4.1505
G01 X41.4125 Y-4.1260
G01 X41.4125 Y-2.9276
G01 X41.4196 Y-2.8897
G01 X41.4485 Y-2.6955
G01 X41.4514 Y-2.6719
G01 X41.4533 Y-2.6467
G01 X41.4629 Y-2.4505
G01 X41.4635 Y-2.4260
G01 X41.4629 Y-2.4015
G01 X41.4533 Y-2.2053
G01 X41.4514 Y-2.1801
G01 X41.4485 Y-2.1565
G01 X41.4196 Y-1.9623
G01 X41.4125 Y-1.9244
G01 X41.4125 Y-0.7260
G01 X41.4119 Y-0.7015
G01 X41.4107 Y-0.6770
G01 X41.4088 Y-0.6517
G01 X41.4059 Y-0.6281
G01 X41.4023 Y-0.6039
G01 X41.3958 Y-0.5688
G01 X41.3868 Y-0.5319
G01 X41.3806 Y-0.5098
G01 X41.3725 Y-0.4850
G01 X41.3642 Y-0.4619
G01 X41.3504 Y-0.4273
G01 X41.3455 Y-0.4166
G01 X41.3302 Y-0.3845
G01 X41.3118 Y-0.3511
G01 X41.2992 Y-0.3301
G01 X41.2864 Y-0.3098
G01 X41.2720 Y-0.2893
G01 X41.2574 Y-0.2696
G01 X41.2354 Y-0.2420
G01 X41.2098 Y-0.2134
G01 X41.1928 Y-0.1957
G01 X41.1751 Y-0.1787
G01 X41.1465 Y-0.1531
G01 X41.1189 Y-0.1311
G01 X41.0992 Y-0.1165
G01 X41.0787 Y-0.1021
G01 X41.0584 Y-0.0893
G01 X41.0374 Y-0.0767
G01 X41.0040 Y-0.0583
G01 X40.9612 Y-0.0381
G01 X40.9266 Y-0.0243
G01 X40.9035 Y-0.0160
G01 X40.8787 Y-0.0079
G01 X40.8566 Y-0.0017
G01 X40.8197 Y0.0073
G01 X40.7846 Y0.0138
G01 X40.7604 Y0.0174
G01 X40.7368 Y0.0203
G01 X40.7115 Y0.0222
G01 X40.6870 Y0.0234
G01 X40.6625 Y0.0240
G01 X39.4641 Y0.0240
G01 X39.4262 Y0.0311
G01 X39.2320 Y0.0600
G01 X39.2084 Y0.0629
G01 X39.1832 Y0.0648
G01 X38.9870 Y0.0744
G01 X38.9625 Y0.0750
G01 X22.0375 Y0.0750
G01 X22.0130 Y0.0744
G01 X21.8168 Y0.0648
G01 X21.7916 Y0.0629
G01 X21.7680 Y0.0600
G01 X21.5738 Y0.0311
G01 X21.5387 Y0.0246
G01 X21.3352 Y-0.0261
G01 X21.3130 Y-0.0322
G01 X21.2882 Y-0.0404
G01 X21.1033 Y-0.1065
G01 X21.0687 Y-0.1204
G01 X21.0580 Y-0.1253
G01 X20.8706 Y-0.2141
G01 X20.8372 Y-0.2324
G01 X20.6688 Y-0.3334
G01 X20.6485 Y-0.3462
G01 X20.6280 Y-0.3606
G01 X20.4702 Y-0.4776
G01 X20.4427 Y-0.4996
G01 X20.2868 Y-0.6406
G01 X20.2872 Y-0.6410
G01 X20.2690 Y-0.6575
G01 X2.9690 Y-17.9575
G01 X2.9521 Y-17.9753
G01 X2.9288 Y-18.0010
G01 X0.6875 Y-18.0010
G01 X0.6353 Y-18.0037
G01 X0.5837 Y-18.0119
G01 X0.5332 Y-18.0254
G01 X0.4844 Y-18.0441
G01 X0.4377 Y-18.0679
G01 X0.3937 Y-18.0964
G01 X0.3530 Y-18.1294
G01 X0.3159 Y-18.1665
G01 X0.2829 Y-18.2072
G01 X0.2544 Y-18.2512
G01 X0.2306 Y-18.2979
G01 X0.2119 Y-18.3467
G01 X0.1984 Y-18.3972
G01 X0.1902 Y-18.4488
G01 X0.1875 Y-18.5010
G01 X0.1875 Y-28.5010
G01 X0.1902 Y-28.5532
G01 X0.1984 Y-28.6048
G01 X0.2119 Y-28.6553
G01 X0.2306 Y-28.7041
G01 X0.2544 Y-28.7508
G01 X0.2829 Y-28.7948
G01 X0.3159 Y-28.8355
G01 X0.3530 Y-28.8726
G01 X0.3937 Y-28.9056
G01 X0.4377 Y-28.9341
G01 X0.4844 Y-28.9579
G01 X0.5332 Y-28.9766
G01 X0.5837 Y-28.9901
G01 X0.6353 Y-28.9983
G01 X0.6875 Y-29.0010
G00 X0.1875 Y-28.5010
G01 F60.00
G01 Z-1.8000
G01 F120.00
G01 X0.1902 Y-28.5532
G01 X0.1984 Y-28.6048
G01 X0.2119 Y-28.6553
G01 X0.2306 Y-28.7041
G01 X0.2544 Y-28.7508
G01 X0.2829 Y-28.7948
G01 X0.3159 Y-28.8355
G01 X0.3530 Y-28.8726
G01 X0.3937 Y-28.9056
G01 X0.4377 Y-28.9341
G01 X0.4844 Y-28.9579
G01 X0.5332 Y-28.9766
G01 X0.5837 Y-28.9901
G01 X0.6353 Y-28.9983
G01 X0.6875 Y-29.0010
G01 X5.6875 Y-29.0010
G01 X5.7397 Y-28.9983
G01 X5.7913 Y-28.9901
G01 X5.8418 Y-28.9766
G01 X5.8906 Y-28.9579
G01 X5.9373 Y-28.9341
G01 X5.9813 Y-28.9056
G01 X6.0220 Y-28.8726
G01 X6.0591 Y-28.8355
G01 X6.0921 Y-28.7948
G01 X6.1206 Y-28.7508
G01 X6.1444 Y-28.7041
G01 X6.1631 Y-28.6553
G01 X6.1766 Y-28.6048
G01 X6.1848 Y-28.5532
G01 X6.1875 Y-28.5010
G01 X6.1875 Y-25.5364
G01 X6.3048 Y-25.4494
G01 X6.3323 Y-25.4274
G01 X6.4882 Y-25.2864
G01 X6.5060 Y-25.2695
G01 X6.5229 Y-25.2517
G01 X6.6548 Y-25.1062
G01 X6.6639 Y-25.0958
G01 X6.6859 Y-25.0683
G01 X6.8029 Y-24.9105
G01 X6.8173 Y-24.8900
G01 X6.8301 Y-24.8697
G01 X6.9311 Y-24.7013
G01 X6.9494 Y-24.6679
G01 X6.9542 Y-24.6580
G01 X7.0431 Y-24.4698
G01 X7.0570 Y-24.4352
G01 X7.1231 Y-24.2503
G01 X7.1313 Y-24.2255
G01 X7.1374 Y-24.2034
G01 X7.1881 Y-23.9998
G01 X7.1946 Y-23.9647
G01 X7.2235 Y-23.7705
G01 X7.2264 Y-23.7469
G01 X7.2283 Y-23.7217
G01 X7.2379 Y-23.5255
G01 X7.2385 Y-23.5010
G01 X7.2385 Y-20.7619
G01 X23.0734 Y-4.9270
G01 X38.9625 Y-4.9270
G01 X38.9870 Y-4.9264
G01 X39.1832 Y-4.9168
G01 X39.2084 Y-4.9149
G01 X39.2320 Y-4.9120
G01 X39.4262 Y-4.8831
G01 X39.4641 Y-4.8760
G01 X40.6625 Y-4.8760
G01 X40.6870 Y-4.8754
G01 X40.7115 Y-4.8742
G01 X40.7368 Y-4.8723
G01 X40.7604 Y-4.8694
G01 X40.7846 Y-4.8658
G01 X40.8197 Y-4.8593
G01 X40.8566 Y-4.8503
G01 X40.8787 Y-4.8441
G01 X40.9035 Y-4.8360
G01 X40.9266 Y-4.8277
G01 X40.9612 Y-4.8139
G01 X41.0040 Y-4.7937
G01 X41.0374 Y-4.7753
G01 X41.0584 Y-4.7627
G01 X41.0787 Y-4.7499
G01 X41.0992 Y-4.7355
G01 X41.1189 Y-4.7209
G01 X41.1465 Y-4.6989
G01 X41.1569 Y-4.6897
G01 X41.1751 Y-4.6733
G01 X41.1928 Y-4.6563
G01 X41.2098 Y-4.6386
G01 X41.2354 Y-4.6100
G01 X41.2574 Y-4.5824
G01 X41.2720 Y-4.5627
G01 X41.2864 Y-4.5422
G01 X41.2992 Y-4.5219
G01 X41.3118 Y-4.5009
G01 X41.3302 Y-4.4675
G01 X41.3504 Y-4.4247
G01 X41.3642 Y-4.3901
G01 X41.3725 Y-4.3670
G01 X41.3806 Y-4.3422
G01 X41.3868 Y-4.3201
G01 X41.3958 Y-4.2832
G01 X41.4023 Y-4.2481
G01 X41.4059 Y-4.2239
G01 X41.4088 Y-4.2003
G01 X41.4107 Y-4.1750
G01 X41.4119 Y-4.1505
G01 X41.4125 Y-4.1260
G01 X41.4125 Y-2.9276
G01 X41.4196 Y-2.8897
G01 X41.4485 Y-2.6955
G01 X41.4514 Y-2.6719
G01 X41.4533 Y-2.6467
G01 X41.4629 Y-2.4505
G01 X41.4635 Y-2.4260
G01 X41.4629 Y-2.4015
G01 X41.4533 Y-2.2053
G01 X41.4514 Y-2.1801
G01 X41.4485 Y-2.1565
G01 X41.4196 Y-1.9623
G01 X41.4125 Y-1.9244
G01 X41.4125 Y-0.7260
G01 X41.4119 Y-0.7015
G01 X41.4107 Y-0.6770
G01 X41.4088 Y-0.6517
G01 X41.4059 Y-0.6281
G01 X41.4023 Y-0.6039
G01 X41.3958 Y-0.5688
G01 X41.3868 Y-0.5319
G01 X41.3806 Y-0.5098
G01 X41.3725 Y-0.4850
G01 X41.3642 Y-0.4619
G01 X41.3504 Y-0.4273
G01 X41.3455 Y-0.4166
G01 X41.3302 Y-0.3845
G01 X41.3118 Y-0.3511
G01 X41.2992 Y-0.3301
G01 X41.2864 Y-0.3098
G01 X41.2720 Y-0.2893
G01 X41.2574 Y-0.2696
G01 X41.2354 Y-0.2420
G01 X41.2098 Y-0.2134
G01 X41.1928 Y-0.1957
G01 X41.1751 Y-0.1787
G01 X41.1465 Y-0.1531
G01 X41.1189 Y-0.1311
G01 X41.0992 Y-0.1165
G01 X41.0787 Y-0.1021
G01 X41.0584 Y-0.0893
G01 X41.0374 Y-0.0767
G01 X41.0040 Y-0.0583
G01 X40.9612 Y-0.0381
G01 X40.9266 Y-0.0243
G01 X40.9035 Y-0.0160
G01 X40.8787 Y-0.0079
G01 X40.8566 Y-0.0017
G01 X40.8197 Y0.0073
G01 X40.7846 Y0.0138
G01 X40.7604 Y0.0174
G01 X40.7368 Y0.0203
G01 X40.7115 Y0.0222
G01 X40.6870 Y0.0234
G01 X40.6625 Y0.0240
G01 X39.4641 Y0.0240
G01 X39.4262 Y0.0311
G01 X39.2320 Y0.0600
G01 X39.2084 Y0.0629
G01 X39.1832 Y0.0648
G01 X38.9870 Y0.0744
G01 X38.9625 Y0.0750
G01 X22.0375 Y0.0750
G01 X22.0130 Y0.0744
G01 X21.8168 Y0.0648
G01 X21.7916 Y0.0629
G01 X21.7680 Y0.0600
G01 X21.5738 Y0.0311
G01 X21.5387 Y0.0246
G01 X21.3352 Y-0.0261
G01 X21.3130 Y-0.0322
G01 X21.2882 Y-0.0404
G01 X21.1033 Y-0.1065
G01 X21.0687 Y-0.1204
G01 X21.0580 Y-0.1253
G01 X20.8706 Y-0.2141
G01 X20.8372 Y-0.2324
G01 X20.6688 Y-0.3334
G01 X20.6485 Y-0.3462
G01 X20.6280 Y-0.3606
G01 X20.4702 Y-0.4776
G01 X20.4427 Y-0.4996
G01 X20.2868 Y-0.6406
G01 X20.2872 Y-0.6410
G01 X20.2690 Y-0.6575
G01 X2.9690 Y-17.9575
G01 X2.9521 Y-17.9753
G01 X2.9288 Y-18.0010
G01 X0.6875 Y-18.0010
G01 X0.6353 Y-18.0037
G01 X0.5837 Y-18.0119
G01 X0.5332 Y-18.0254
G01 X0.4844 Y-18.0441
G01 X0.4377 Y-18.0679
G01 X0.3937 Y-18.0964
G01 X0.3530 Y-18.1294
G01 X0.3159 Y-18.1665
G01 X0.2829 Y-18.2072
G01 X0.2544 Y-18.2512
G01 X0.2306 Y-18.2979
G01 X0.2119 Y-18.3467
G01 X0.1984 Y-18.3972
G01 X0.1902 Y-18.4488
G01 X0.1875 Y-18.5010
G01 X0.1875 Y-28.5010
G01 X0.1902 Y-28.5532
G01 X0.1984 Y-28.6048
G01 X0.2119 Y-28.6553
G01 X0.2306 Y-28.7041
G01 X0.2544 Y-28.7508
G01 X0.2829 Y-28.7948
G01 X0.3159 Y-28.8355
G01 X0.3530 Y-28.8726
G01 X0.3937 Y-28.9056
G01 X0.4377 Y-28.9341
G01 X0.4844 Y-28.9579
G01 X0.5332 Y-28.9766
G01 X0.5837 Y-28.9901
G01 X0.6353 Y-28.9983
G01 X0.6875 Y-29.0010
G00 Z6.0000
M05
G00 Z6.0000
G00 Z15.00
G00 X0.0 Y0.0

